X: 20312
Q: "Slow"
M: C
L: 1/8
K: Bm
e3f (e<c) (B>c) | A3B c2B>A |\
{g}f2 (3(edc) d>ec>d | (B4 f2) :|
|: B>c |\
(d>e)(f>g) a3b | (a<f) (e>f) a2 e>d |\
c2(af) (ec) (B>c) | A3B c2(BA) |\
d2(c>B) B3F | B>cd>e {de}f2ed |\
(e>f)(ab) (af)(ec) | (B4 f2) :|


